public/svg/wallet_as_service/multichain.svg

<svg width="19" height="19" viewBox="0 0 19 19" fill="none" xmlns="http://www.w3.org/2000/svg">
<path d="M4.5 9.91667L5.15372 11.2241C5.37496 11.6666 5.48558 11.8878 5.63336 12.0795C5.76449 12.2497 5.91701 12.4022 6.08713 12.5333C6.27885 12.6811 6.50009 12.7917 6.94257 13.013L8.25 13.6667L6.94257 14.3204C6.50009 14.5416 6.27885 14.6522 6.08713 14.8C5.91701 14.9312 5.76449 15.0837 5.63336 15.2538C5.48558 15.4455 5.37496 15.6668 5.15372 16.1092L4.5 17.4167L3.84628 16.1092C3.62504 15.6668 3.51442 15.4455 3.36664 15.2538C3.23551 15.0837 3.08299 14.9312 2.91287 14.8C2.72115 14.6522 2.49991 14.5416 2.05743 14.3204L0.75 13.6667L2.05743 13.013C2.49991 12.7917 2.72115 12.6811 2.91287 12.5333C3.08299 12.4022 3.23551 12.2497 3.36664 12.0795C3.51442 11.8878 3.62504 11.6666 3.84628 11.2241L4.5 9.91667Z" stroke="#414651" stroke-width="1.5" stroke-linecap="round" stroke-linejoin="round"/>
<path d="M11.5833 0.75L12.5655 3.30368C12.8005 3.91471 12.918 4.22022 13.1008 4.4772C13.2627 4.70496 13.4617 4.90395 13.6895 5.0659C13.9464 5.24863 14.252 5.36614 14.863 5.60115L17.4167 6.58333L14.863 7.56552C14.252 7.80053 13.9464 7.91803 13.6895 8.10076C13.4617 8.26271 13.2627 8.46171 13.1008 8.68947C12.918 8.94645 12.8005 9.25196 12.5655 9.86298L11.5833 12.4167L10.6011 9.86298C10.3661 9.25196 10.2486 8.94645 10.0659 8.68947C9.90395 8.46171 9.70496 8.26271 9.4772 8.10076C9.22022 7.91803 8.91471 7.80053 8.30368 7.56552L5.75 6.58333L8.30368 5.60115C8.91471 5.36614 9.22022 5.24863 9.4772 5.0659C9.70496 4.90395 9.90395 4.70496 10.0659 4.4772C10.2486 4.22022 10.3661 3.91471 10.6011 3.30368L11.5833 0.75Z" stroke="#414651" stroke-width="1.5" stroke-linecap="round" stroke-linejoin="round"/>
</svg>

<svg xmlns="http://www.w3.org/2000/svg" width="19" height="19" fill="none" viewBox="0 0 19 19"><path stroke="#414651" stroke-linecap="round" stroke-linejoin="round" stroke-width="1.5" d="m4.5 9.917.654 1.307c.221.443.332.664.48.855q.197.256.453.454c.192.148.413.259.856.48l1.307.654-1.307.653c-.443.222-.664.332-.856.48q-.256.198-.454.454c-.147.191-.258.413-.48.855L4.5 17.417l-.654-1.308c-.221-.442-.332-.664-.48-.855a2.5 2.5 0 0 0-.453-.454c-.192-.148-.413-.258-.856-.48L.75 13.667l1.307-.654c.443-.221.664-.332.856-.48q.256-.197.454-.453c.147-.192.258-.413.48-.856zM11.583.75l.982 2.554c.236.61.353.916.536 1.173q.245.344.588.589c.257.183.563.3 1.174.535l2.554.982-2.554.983c-.611.235-.917.352-1.173.535a2.5 2.5 0 0 0-.59.588c-.182.257-.3.563-.534 1.174l-.983 2.554-.982-2.554c-.235-.611-.352-.917-.535-1.174a2.5 2.5 0 0 0-.589-.588c-.257-.183-.562-.3-1.173-.535L5.75 6.583l2.554-.982c.61-.235.916-.352 1.173-.535a2.5 2.5 0 0 0 .589-.589c.183-.257.3-.562.535-1.173z"/></svg>
